Setup/v9/Assets/Themes/Kobe - Light/ViewNextImage.svg

<svg width="20" height="20" viewBox="0 0 20 20" fill="none" xmlns="http://www.w3.org/2000/svg">
<path fill-rule="evenodd" clip-rule="evenodd" d="M10.9903 1.94643C11.1856 1.75117 11.5022 1.75117 11.6974 1.94643L19.3814 9.63041C19.4569 9.70595 19.5033 9.79965 19.5203 9.89746C19.5475 10.0525 19.5012 10.218 19.3814 10.3378L11.6849 18.0343C11.4897 18.2295 11.1731 18.2295 10.9778 18.0343C10.7826 17.839 10.7826 17.5224 10.9778 17.3272L16.9067 11.3983C17.1545 11.1505 17.3237 10.8538 17.4143 10.5392H1C0.723858 10.5392 0.5 10.3154 0.5 10.0392C0.5 9.76308 0.723858 9.53922 1 9.53922H17.4426C17.3619 9.18398 17.1833 8.84651 16.9067 8.56989L10.9903 2.65354C10.7951 2.45828 10.7951 2.1417 10.9903 1.94643Z" fill="black"/>
</svg>

<svg xmlns="http://www.w3.org/2000/svg" width="20" height="20" fill="none"><path fill="#000" fill-rule="evenodd" d="M10.99 1.946a.5.5 0 0 1 .707 0l7.684 7.684a.497.497 0 0 1 0 .708l-7.696 7.696a.5.5 0 0 1-.707-.707l5.929-5.929c.247-.248.417-.544.507-.859H1a.5.5 0 1 1 0-1h16.443a1.99 1.99 0 0 0-.536-.97L10.99 2.655a.5.5 0 0 1 0-.708Z" clip-rule="evenodd"/></svg>
